svgs/light/book-journal-whills.svg

<svg xmlns="http://www.w3.org/2000/svg" viewBox="0 0 448 512"><!--! Font Awesome Pro 6.0.0-alpha3 by @fontawesome - https://fontawesome.com License - https://fontawesome.com/license (Commercial License) --><path d="M308 85.25c-4.75-2.625-10.62-1.75-14.5 2.125c-3.75 4-4.375 10-1.5 14.63c16.25 25.87 10.38 59.87-13.5 78.87c-2.5 2.25-4 5.25-4.375 8.625c-.25 3.25 1 6.5 3.25 9c13 13.38 17.75 32.63 12.5 50.5S270.1 280.6 252 284.9V259.3l6.25 6.375c3.125 3.125 8.25 3.125 11.38 0s3.125-8.125 0-11.25L259.3 244H272c4.375 0 8-3.625 8-8s-3.625-8-8-8h-12.75l10.38-10.38c3.125-3.125 3.125-8.125 0-11.25s-8.125-3.125-11.25 0L252 212.8V84c0-6.625-5.375-12-12-12s-12 5.375-12 12v128.8L221.6 206.4c-3.125-3.125-8.125-3.125-11.25 0s-3.125 8.125 0 11.25L220.6 228H208c-4.375 0-8 3.625-8 8s3.625 8 8 8h12.62L210.4 254.4c-3.125 3.125-3.125 8.125 0 11.25s8.125 3.125 11.25 0L228 259.3v25.62C209.9 280.6 195.4 267 190.1 249.1S189.6 211.9 202.5 198.5C204.9 196 206.1 192.8 205.9 189.5C205.6 186.1 204.1 183 201.5 180.9c-24-19-29.75-53-13.5-78.87c1.125-1.875 1.75-4.125 1.75-6.25c-.125-3.125-1.25-6-3.375-8.375C182.6 83.5 176.8 82.63 171.9 85.25C127.5 110.1 100 156.8 100 207c0 77.13 62.88 140 140 140s140-62.88 140-140C380 156.8 352.4 110.1 308 85.25zM330.4 197.6c3.125 3.125 8.125 3.125 11.25 0l12.25-12.25C355.3 192.5 356 199.8 356 207c0 4.75-.875 9.375-1.5 14.12l-23.88 20.88c-2.125 1.875-3.125 4.75-2.5 7.625c.5 2.75 2.5 5 5.25 6c2.75 .875 5.75 .25 7.875-1.625L348.1 248C331.4 291.8 289.5 323 240 323S148.5 291.8 131.9 248l6.875 6c3.249 2.875 8.375 2.625 11.25-.7501C151.4 251.6 152.1 249.6 152 247.5S150.9 243.4 149.3 242L125.5 221.1C124.9 216.4 124 211.8 124 207c0-7.25 .625-14.5 1.999-21.62l12.38 12.25c3.125 3.125 8.125 3.125 11.25 0s3.125-8.25 0-11.38L131.3 167.9C136.5 153.4 144.5 140.1 155 128.8c-.125 1.625-.25 3.375-.25 5C154.9 155.1 163 175.6 177.5 191.3c-21.88 31.62-16.75 74.63 12 100.1c28.88 25.62 72.13 25.62 101 0c28.75-25.5 33.88-68.5 11.88-100.1c14.62-15.62 22.75-36.13 22.75-57.5c0-1.625 0-3.375-.125-5C335.4 140 343.5 153.4 348.8 167.9l-18.44 18.38C327.3 189.4 327.3 194.5 330.4 197.6zM448 368v-320C448 21.49 426.5 0 400 0h-320C35.82 0 0 35.82 0 80V448c0 35.35 28.65 64 64 64h368c8.844 0 16-7.156 16-16S440.8 480 432 480H416v-66.95C434.6 406.4 448 388.8 448 368zM384 480H64c-17.64 0-32-14.36-32-32s14.36-32 32-32h320V480zM400 384H64c-11.71 0-22.55 3.389-32 8.9V80C32 53.49 53.49 32 80 32h320C408.8 32 416 39.16 416 48v320C416 376.8 408.8 384 400 384z"/></svg>

<svg xmlns="http://www.w3.org/2000/svg" viewBox="0 0 448 512"><!-- Font Awesome Pro 6.0.0-alpha2 by @fontawesome - https://fontawesome.com License - https://fontawesome.com/license (Commercial License) --><path d="M308 85.25C303.25 82.625 297.375 83.5 293.5 87.375C289.75 91.375 289.125 97.375 292 102C308.25 127.875 302.375 161.875 278.5 180.875C276 183.125 274.5 186.125 274.125 189.5C273.875 192.75 275.125 196 277.375 198.5C290.375 211.875 295.125 231.125 289.875 249S270.125 280.625 252 284.875V259.25L258.25 265.625C261.375 268.75 266.5 268.75 269.625 265.625S272.75 257.5 269.625 254.375L259.25 244H272C276.375 244 280 240.375 280 236S276.375 228 272 228H259.25L269.625 217.625C272.75 214.5 272.75 209.5 269.625 206.375S261.5 203.25 258.375 206.375L252 212.75V84C252 77.375 246.625 72 240 72S228 77.375 228 84V212.75L221.625 206.375C218.5 203.25 213.5 203.25 210.375 206.375S207.25 214.5 210.375 217.625L220.625 228H208C203.625 228 200 231.625 200 236S203.625 244 208 244H220.625L210.375 254.375C207.25 257.5 207.25 262.5 210.375 265.625S218.5 268.75 221.625 265.625L228 259.25V284.875C209.875 280.625 195.375 267 190.125 249.125S189.625 211.875 202.5 198.5C204.875 196 206.125 192.75 205.875 189.5C205.625 186.125 204.125 183 201.5 180.875C177.5 161.875 171.75 127.875 188 102C189.125 100.125 189.75 97.875 189.75 95.75C189.625 92.625 188.5 89.75 186.375 87.375C182.625 83.5 176.75 82.625 171.875 85.25C127.5 110.125 100 156.75 100 207C100 284.125 162.875 347 240 347S380 284.125 380 207C380 156.75 352.375 110.125 308 85.25ZM330.375 197.625C333.5 200.75 338.5 200.75 341.625 197.625L353.875 185.375C355.25 192.5 356 199.75 356 207C356 211.75 355.125 216.375 354.5 221.125L330.625 242C328.5 243.875 327.5 246.75 328.125 249.625C328.625 252.375 330.625 254.625 333.375 255.625C336.125 256.5 339.125 255.875 341.25 254L348.125 248C331.375 291.75 289.5 323 240 323S148.5 291.75 131.875 248L138.75 254C141.999 256.875 147.125 256.625 149.999 253.25C151.375 251.625 152.125 249.625 152 247.5S150.875 243.375 149.25 242L125.5 221.125C124.875 216.375 124 211.75 124 207C124 199.75 124.625 192.5 125.999 185.375L138.375 197.625C141.5 200.75 146.5 200.75 149.625 197.625S152.75 189.5 149.625 186.375L131.25 167.875C136.5 153.375 144.5 140.125 155 128.75C154.875 130.375 154.75 132.125 154.75 133.75C154.875 155.125 163 175.625 177.5 191.25C155.625 222.875 160.75 265.875 189.5 291.375C218.375 317 261.625 317 290.5 291.375C319.25 265.875 324.375 222.875 302.375 191.25C317 175.625 325.125 155.125 325.125 133.75C325.125 132.125 325.125 130.375 325 128.75C335.375 140 343.5 153.375 348.75 167.875L330.25 186.375C327.25 189.5 327.25 194.5 330.375 197.625ZM448 368V48C448 21.49 426.51 0 400 0H80C35.816 0 0 35.816 0 80V448C0 483.346 28.654 512 64 512H432C440.844 512 448 504.844 448 496S440.844 480 432 480H416V413.053C434.584 406.426 448 388.832 448 368ZM384 480H64C46.359 480 32 465.641 32 448S46.359 416 64 416H384V480ZM400 384H64C52.291 384 41.451 387.389 32 392.9V80C32 53.49 53.49 32 80 32H400C408.836 32 416 39.164 416 48V368C416 376.836 408.836 384 400 384Z"/></svg>
